dhis-2/dhis-support/dhis-support-system/src/main/resources/SVGs/vih_aids_negative.svg

<?xml version="1.0" encoding="UTF-8" standalone="no"?>
<!-- Created with Inkscape (http://www.inkscape.org/) -->
<svg id="svg8" xmlns:rdf="http://www.w3.org/1999/02/22-rdf-syntax-ns#" xmlns="http://www.w3.org/2000/svg" xmlns:osb="http://www.openswatchbook.org/uri/2009/osb" height="48" width="48" version="1.1" xmlns:cc="http://creativecommons.org/ns#" viewBox="0 0 12.7 12.7" xmlns:dc="http://purl.org/dc/elements/1.1/">
 <title id="title4753">UIO-icon</title>
 <metadata id="metadata5">
  <rdf:RDF>
   <cc:Work rdf:about="">
    <dc:format>image/svg+xml</dc:format>
    <dc:type rdf:resource="http://purl.org/dc/dcmitype/StillImage"/>
    <dc:title>UIO-icon</dc:title>
    <dc:creator>
     <cc:Agent>
      <dc:title>Joaquín Urbano</dc:title>
     </cc:Agent>
    </dc:creator>
    <dc:rights>
     <cc:Agent>
      <dc:title>GPL</dc:title>
     </cc:Agent>
    </dc:rights>
   </cc:Work>
  </rdf:RDF>
 </metadata>
 <g id="layer1" fill="#333" transform="translate(0,-284.3)">
  <path id="rect914" d="m0 0v48h48v-48zm22.197 3.8555h3.6054c0.58655 0 1.0586 0.47204 1.0586 1.0586 0 0.58655-0.47204 1.0586-1.0586 1.0586h-0.74414v2.123a15.881 15.881 0 0 1 9.416 3.9336l1.526-1.527-0.527-0.5235c-0.41476-0.41477-0.41476-1.0833 0-1.498 0.20738-0.20738 0.47745-0.31055 0.74805-0.31055 0.2706 0.00000378 0.54262 0.10318 0.75 0.31055l2.5488 2.5488c0.41476 0.41477 0.41476 1.0833 0 1.498-0.41476 0.41477-1.0833 0.41477-1.498 0l-0.524-0.527-1.5234 1.5215a15.881 15.881 0 0 1 3.8574 9.4199h2.1953v-0.74414c0-0.58656 0.47204-1.0586 1.0586-1.0586 0.58655 0 1.0586 0.47203 1.0586 1.0586v3.6054c0 0.58656-0.47204 1.0586-1.0586 1.0586s-1.0586-0.47204-1.0586-1.0586v-0.744h-2.185a15.881 15.881 0 0 1 -3.932 9.355l1.588 1.586 0.52344-0.52734c0.41476-0.41473 1.0833-0.41473 1.498 0 0.41476 0.41477 0.41476 1.0833 0 1.498l-2.5488 2.5488c-0.41476 0.41477-1.0833 0.41477-1.498 0-0.41476-0.41477-0.41476-1.0833 0-1.498l0.528-0.524-1.582-1.582a15.881 15.881 0 0 1 -9.3594 3.8535v2.2578h0.74414c0.58655 0 1.0586 0.47204 1.0586 1.0586 0 0.58655-0.47204 1.0586-1.0586 1.0586h-3.6055c-0.58655 0-1.0586-0.47204-1.0586-1.0586 0-0.58655 0.47204-1.0586 1.0586-1.0586h0.74414v-2.2422a15.881 15.881 0 0 1 -9.352 -3.88l-1.59 1.592 0.52734 0.52344c0.41476 0.41477 0.41476 1.0833 0 1.498-0.41475 0.41477-1.0833 0.41473-1.498 0l-0.527-0.525-1.4961-1.496-0.5254-0.527c-0.41476-0.41477-0.41476-1.0833 0-1.498 0.41476-0.41477 1.0833-0.41477 1.498 0l0.5235 0.527 1.58-1.58a15.881 15.881 0 0 1 -3.9082 -9.361h-2.2011v0.74414c0 0.58656-0.47204 1.0586-1.0586 1.0586-0.58655 0-1.0586-0.47204-1.0586-1.0586v-3.6055c0-0.58656 0.47204-1.0586 1.0586-1.0586 0.58655 0 1.0586 0.47203 1.0586 1.0586v0.74414h2.1816a15.881 15.881 0 0 1 3.8787 -9.413l-1.531-1.529-0.5235 0.527c-0.41476 0.41477-1.0833 0.41477-1.498 0-0.41476-0.41477-0.41476-1.0833 0-1.498l0.5254-0.527 1.4961-1.4961 0.527-0.5254c0.20738-0.20738 0.4794-0.31055 0.75-0.31055s0.54067 0.10316 0.74805 0.31055c0.41476 0.41477 0.41476 1.0833 0 1.498l-0.527 0.5235 1.52 1.521a15.881 15.881 0 0 1 9.4219 -3.9141v-2.1362h-0.74414c-0.58655 0-1.0586-0.47204-1.0586-1.0586 0-0.58655 0.47204-1.0586 1.0586-1.0586zm1.803 7.7775a12.308 12.308 0 0 0 -12.309 12.306 12.308 12.308 0 0 0 12.309 12.309 12.308 12.308 0 0 0 12.309 -12.309 12.308 12.308 0 0 0 -12.309 -12.306zm-2.9902 5.9316a3.455 3.455 0 0 1 3.4551 3.4531 3.455 3.455 0 0 1 -3.4551 3.4551 3.455 3.455 0 0 1 -3.4551 -3.4551 3.455 3.455 0 0 1 3.4551 -3.4531zm8.2812 4.959a2.4256 2.4256 0 0 1 2.426 2.425 2.4256 2.4256 0 0 1 -2.426 2.426 2.4256 2.4256 0 0 1 -2.426 -2.426 2.4256 2.4256 0 0 1 2.426 -2.426zm-5.2402 6.9258a1.6769 1.6769 0 0 1 1.6777 1.6777 1.6769 1.6769 0 0 1 -1.6777 1.6758 1.6769 1.6769 0 0 1 -1.676 -1.677 1.6769 1.6769 0 0 1 1.676 -1.678z" fill-rule="evenodd" transform="matrix(.26458 0 0 .26458 0 284.3)"/>
 </g>
</svg>

<svg width="48" height="48" viewBox="0 0 48 48" fill="none" xmlns="http://www.w3.org/2000/svg">
<path fill-rule="evenodd" clip-rule="evenodd" d="M0 0V47.9994H47.9994V0H0ZM22.1967 3.85545H25.8021C26.3886 3.85545 26.8607 4.32749 26.8607 4.91404C26.8607 5.50058 26.3886 5.97263 25.8021 5.97263H25.0579V8.0956C28.5438 8.33523 31.8534 9.71782 34.4738 12.0291L35.9998 10.5022L35.4728 9.97867C35.0581 9.56391 35.0581 8.89539 35.4728 8.48069C35.6802 8.27332 35.9503 8.17015 36.2209 8.17015C36.4915 8.17015 36.7635 8.27333 36.9708 8.48069L39.5196 11.0295C39.9344 11.4442 39.9344 12.1127 39.5196 12.5274C39.1049 12.9422 38.4363 12.9422 38.0216 12.5274L37.4976 12.0004L35.9743 13.5219C38.2588 16.1536 39.6142 19.4636 39.8316 22.9417H42.0269V22.1976C42.0269 21.611 42.4989 21.139 43.0855 21.139C43.672 21.139 44.1441 21.611 44.1441 22.1976V25.8029C44.1441 26.3895 43.672 26.8615 43.0855 26.8615C42.4989 26.8615 42.0269 26.3895 42.0269 25.8029V25.0589H39.8419C39.5896 28.5233 38.2084 31.8095 35.91 34.4138L37.4979 35.9998L38.0214 35.4725C38.4361 35.0578 39.1047 35.0578 39.5194 35.4725C39.9341 35.8872 39.9341 36.5558 39.5194 36.9705L36.9706 39.5192C36.5558 39.934 35.8873 39.934 35.4726 39.5192C35.0578 39.1045 35.0578 38.4359 35.4726 38.0212L36.0006 37.4972L34.4186 35.9153C31.8026 38.1862 28.5159 39.5394 25.0593 39.7687V42.0265H25.8035C26.39 42.0265 26.8621 42.4985 26.8621 43.0851C26.8621 43.6716 26.39 44.1437 25.8035 44.1437H22.198C21.6115 44.1437 21.1394 43.6716 21.1394 43.0851C21.1394 42.4985 21.6115 42.0265 22.198 42.0265H22.9421V39.7843C19.485 39.546 16.2007 38.1834 13.5903 35.9044L12.0003 37.4963L12.5276 38.0198C12.9424 38.4346 12.9424 39.1031 12.5276 39.5178C12.1129 39.9325 11.4443 39.9325 11.0296 39.5178L10.5026 38.9928L9.00656 37.4968L8.48116 36.9698C8.06641 36.555 8.06641 35.8865 8.48116 35.4718C8.89592 35.057 9.56445 35.057 9.97914 35.4718L10.5026 35.9988L12.0826 34.4188C9.79158 31.8097 8.4188 28.5216 8.17447 25.0579H5.9734V25.8021C5.9734 26.3886 5.50136 26.8607 4.91481 26.8607C4.32827 26.8607 3.85622 26.3886 3.85622 25.8021V22.1966C3.85622 21.6101 4.32826 21.138 4.91481 21.138C5.50135 21.138 5.9734 21.6101 5.9734 22.1966V22.9408H8.15497C8.37985 19.4625 9.7428 16.1548 12.0336 13.5279L10.5026 11.9989L9.97914 12.5259C9.56439 12.9406 8.89586 12.9406 8.48116 12.5259C8.06641 12.1111 8.06641 11.4426 8.48116 11.0279L9.00656 10.5009L10.5026 9.00483L11.0296 8.47943C11.237 8.27206 11.509 8.16889 11.7796 8.16889C12.0502 8.16889 12.3203 8.27205 12.5277 8.47943C12.9424 8.8942 12.9424 9.56272 12.5277 9.97741L12.0007 10.5009L13.5206 12.0219C16.1453 9.71644 19.4568 8.34073 22.9424 8.10784V5.97167H22.1983C21.6118 5.97167 21.1397 5.49963 21.1397 4.91308C21.1397 4.32654 21.6117 3.85449 22.1983 3.85449L22.1967 3.85545ZM23.9997 11.6329C20.7356 11.6326 17.6051 12.9289 15.2968 15.2367C12.9885 17.5444 11.6914 20.6746 11.6909 23.9387C11.6907 25.5552 12.009 27.1558 12.6275 28.6492C13.2461 30.1427 14.1527 31.4997 15.2957 32.6427C16.4387 33.7857 17.7957 34.6923 19.2892 35.3109C20.7826 35.9294 22.3832 36.2477 23.9997 36.2475C25.6162 36.2477 27.2168 35.9294 28.7102 35.3109C30.2037 34.6923 31.5607 33.7857 32.7037 32.6427C33.8467 31.4997 34.7533 30.1427 35.3719 28.6492C35.9904 27.1558 36.3087 25.5552 36.3085 23.9387C36.308 20.6746 35.0109 17.5444 32.7026 15.2367C30.3943 12.9289 27.2638 11.6326 23.9997 11.6329ZM21.0095 17.5644C21.9255 17.5644 22.8041 17.9281 23.452 18.5756C24.0999 19.2231 24.4641 20.1014 24.4646 21.0174C24.4646 21.4712 24.3752 21.9205 24.2016 22.3396C24.028 22.7588 23.7735 23.1397 23.4527 23.4606C23.1318 23.7814 22.7509 24.0359 22.3317 24.2095C21.9126 24.3831 21.4633 24.4725 21.0095 24.4725C20.5558 24.4725 20.1065 24.3831 19.6873 24.2095C19.2681 24.0359 18.8872 23.7814 18.5664 23.4606C18.2456 23.1397 17.9911 22.7588 17.8175 22.3396C17.6438 21.9205 17.5545 21.4712 17.5545 21.0174C17.555 20.1014 17.9192 19.2231 18.5671 18.5756C19.215 17.9281 20.0935 17.5644 21.0095 17.5644ZM29.2906 22.5233C29.9339 22.5232 30.5509 22.7786 31.0058 23.2334C31.4608 23.6882 31.7164 24.305 31.7166 24.9483C31.7167 25.2669 31.6539 25.5824 31.532 25.8767C31.4101 26.1711 31.2315 26.4385 31.0062 26.6638C30.7809 26.8891 30.5134 27.0678 30.2191 27.1897C29.9247 27.3116 29.6092 27.3743 29.2906 27.3743C28.972 27.3743 28.6565 27.3116 28.3622 27.1897C28.0678 27.0678 27.8004 26.8891 27.5751 26.6638C27.3498 26.4385 27.1711 26.1711 27.0492 25.8767C26.9273 25.5824 26.8646 25.2669 26.8647 24.9483C26.8646 24.6297 26.9273 24.3142 27.0492 24.0198C27.1711 23.7255 27.3498 23.458 27.5751 23.2327C27.8004 23.0075 28.0678 22.8288 28.3622 22.7069C28.6565 22.585 28.972 22.5223 29.2906 22.5223V22.5233ZM24.0505 29.449C24.2708 29.4489 24.4891 29.4922 24.6926 29.5765C24.8962 29.6608 25.0812 29.7844 25.237 29.9402C25.3928 30.096 25.5164 30.281 25.6007 30.4846C25.685 30.6882 25.7283 30.9064 25.7282 31.1267C25.7279 31.5714 25.551 31.9978 25.2364 32.312C24.9217 32.6263 24.4952 32.8027 24.0505 32.8025C23.6059 32.8022 23.1796 32.6255 22.8653 32.311C22.551 31.9965 22.3745 31.5701 22.3745 31.1255C22.3744 30.9053 22.4176 30.6872 22.5018 30.4837C22.5859 30.2801 22.7093 30.0952 22.865 29.9394C23.0206 29.7836 23.2054 29.6599 23.4088 29.5755C23.6122 29.4911 23.8303 29.4476 24.0505 29.4475V29.449Z" fill="#333333"/>
</svg>
